public/django.svg

<?xml version="1.0" encoding="UTF-8"?>
<!-- Uploaded to: SVG Repo, www.svgrepo.com, Generator: SVG Repo Mixer Tools -->
<svg width="800px" height="800px" viewBox="0 0 256 256" version="1.1" xmlns="http://www.w3.org/2000/svg" xmlns:xlink="http://www.w3.org/1999/xlink" preserveAspectRatio="xMidYMid">
    <g>
        <rect fill="#092E20" x="0" y="0" width="256" height="256" rx="28">
</rect>
        <path d="M186.377012,94.197636 L186.377012,160.424478 C186.377012,183.243286 184.707519,194.187745 179.699037,203.649406 C175.060358,212.741266 168.937684,218.490548 156.323731,224.798721 L129.794937,212.183571 C142.410087,206.247593 148.531564,201.05481 152.427049,193.074749 C156.509231,184.91278 157.808923,175.451119 157.808923,150.593015 L157.808923,94.197636 L186.377012,94.197636 Z M140.928486,50.0787207 L140.928486,182.316986 C126.272844,185.099476 115.512688,186.212472 103.826231,186.212472 C68.9487718,186.212472 50.7686431,170.445031 50.7686431,140.205054 C50.7686431,111.079269 70.0629644,92.1583404 99.9295492,92.1583404 C104.567032,92.1583404 108.091519,92.5281423 112.359199,93.6411381 L112.359199,50.0787207 L140.928486,50.0787207 Z M102.713236,115.160254 C88.243093,115.160254 79.8944275,124.065418 79.8944275,139.647359 C79.8944275,154.860696 87.8720944,163.208164 102.527736,163.208164 C105.680028,163.208164 108.278215,163.022665 112.359199,162.467364 L112.359199,116.643052 C109.020212,115.531253 106.237722,115.160254 102.713236,115.160254 Z M186.377012,50.2307105 L186.377012,79.5419941 L157.808923,79.5419941 L157.808923,50.2307105 L186.377012,50.2307105 Z" fill="#FFFFFD">
</path>
    </g>
</svg>

<svg xmlns="http://www.w3.org/2000/svg" preserveAspectRatio="xMidYMid" viewBox="0 0 256 256"><rect width="256" height="256" fill="#092e20" rx="28"/><path fill="#fffffd" d="M186.377 94.198v66.226c0 22.82-1.67 33.764-6.678 43.225-4.639 9.092-10.761 14.842-23.375 21.15l-26.53-12.615c12.616-5.936 18.738-11.13 22.633-19.11 4.082-8.161 5.382-17.623 5.382-42.481V94.198zm-45.449-44.12v132.239c-14.655 2.782-25.415 3.895-37.102 3.895-34.877 0-53.057-15.767-53.057-46.007 0-29.126 19.294-48.047 49.16-48.047 4.638 0 8.163.37 12.43 1.483V50.08zm-38.215 65.082c-14.47 0-22.819 8.905-22.819 24.487 0 15.214 7.978 23.561 22.634 23.561 3.152 0 5.75-.185 9.831-.74v-45.825c-3.339-1.112-6.121-1.483-9.646-1.483m83.664-64.93v29.312h-28.568V50.231z"/></svg>
